X:1
T:Title
%%score ( 1 2 ) { ( 3 5 ) | 4 }
L:1/8
M:3/4
K:F
V:1 treble nm="Grand Piano, Staff 1"
V:2 treble 
V:3 bass nm="Choir Pad, Carey's (Surrey)"
V:5 bass 
V:4 bass 
V:1
 [Fc]2 B2 A2 | [Fd]2 C2- [CE]2 | [CF]2 B2 A2 | [CG]2 [CA]4 | [CA]2 [CG]4 | [F=B]2 [Ec]4 | %6
w: By~Henry~Carey,~circa~1732 * *||||||
 C2 [DF]2 [CE]2 | [=B,D]2 C4 | [Gc]2 B2 A2 | [Fd]2 C2- [CE]2 | [CF]2 B2 A2 | [CG]2 [FA]4 | %12
w: ||||||
 [CA]2 [CG]2 G2 | [F=B]2 [Ec]4 | C[EG] [EG][DF] [CE]2 | [=B,D]2 C4 | [Fc]2 d2- [Gd]2 | %17
w: |||||
 cB c2- [Fc]2 | BA B2- [GB]2 | [FA][EG] [FA]4 | [FA]2 G3- [FG] | [GB]2 .A2- .[EA]2 | %22
w: |||||
 [DF]2 [DG]2 [CF]2 | [CE]2 [CF]4- | [CF]4 z2 |] %25
w: |||
V:2
 z2 F4 | z2 F2 z2 | z2 D4 | x6 | x6 | x6 | x6 | x6 | z2 F4 | z2 F2 z2 | z2 D4 | x6 | x6 | x6 | x6 | %15
 x6 | z2 F2 z2 | E2 E2 z2 | D2 D2 z2 | x6 | z2 E4 | z2 F2 z2 | x6 | x6 | x6 |] %25
V:3
 A,2 D2 C2 | B,2 A,2 G,2 | F,2 G,2 F,2 | E,2 F,4 | F,2 G,4 | F,2 G,4 | G,2 A,2 G,2 | G,2 E,4 | %8
 C2 D2 C2 | B,2 A,2[K:bass] G,2 | F,2 G,2 F,2 | E,2 C4 | F,2 G,4 | G,2 G,4 | G,2 A,2 G,2 | %15
 F,2 E,4 | C2 B,4 | B,2 A,4 | D2 z2 B,2 | C2 C4 | C2 C4 | C2 .C4 | A,2 B,2 A,2 | G,2 A,4- | %24
 A,4 z2 |] %25
V:4
 F,2 F,4 | B,,2 C,2 B,,2 | A,,2 B,,4 | C,2 F,,4 | z2 E,4 | D,2 C,3 D, | E,2 F,2 G,,2 | G,,2 C,4 | %8
 E,2 F,4 | B,,2 C,2 B,,2 | A,,2 B,,4 | C,2 F,4 | z2 E,4 | D,2 C,3 D, | E,2 F,2 z2 | G,,2 C,4 | %16
 A,2 z2 z2 | G,2 z2 z2 | F,2 z2 z2 | C,2 F,4 | A,,2 C,3 D, | E,2 F,2 C,2 | D,2 B,,2 C,2 | %23
 C,2 F,4- | F,4 z2 |] %25
V:5
 x6 | x6 | x6 | x6 | x6 | x6 | x6 | x6 | x6 | x4[K:bass] x2 | x6 | x6 | x6 | x6 | x6 | x6 | x6 | %17
 x6 | z2 G,4 | x6 | x6 | x6 | x6 | x6 | x6 |] %25

